X:11414
T: Mulvihill's
S:Chris (cc_cmf@MINDLINK.NET) Ir-Trad, 4/97
M:4/4
L:1/8
C:Martin Mulvihill
S:Learned from Nick Campbell, Vancouver, B.C.
R:Reel
K:D
dB|AF (3FFF G2 FG|ADFD EGFE|D2 FA dfec|dBAF E2 dB
|AF (3FFF G2 FG|ADFD EGFE|D2 FA dfec|1 dBAF D2 dB :||2 dBAF D2 de||
f2 fa g2 fg|afdf eB B2|f2 fe dfec|dBAF E2 fg|
af (3fff bf (3fff | afef dB (3BBB | f2 fe dfec|1 dBAF D2 fg:||2 |dBAF D2  dB||
